X: 1
T: O'Mealy's
M: 6/8
L: 1/8
R: jig
K: Dmaj
(AG)|:FAA FAA | def gfg | G3 BAG |dBG AGE | 
FAA FAA | def gfg | age dBG | Ac(n)B A3 :|
|: efg age | dBd gdB | G3 BGB | def gfg | 
efg age | def gfg | bge dBG | Ac(n)B A3 :|
